_inc/images/systems/logos/atari5200.svg

<svg viewBox="0 0 264 57" xmlns="http://www.w3.org/2000/svg">
    <path d="M219.089 5.592c5-6.396 15.347-7.489 21.481-2.123 2.509 2.112 4.267 5.027 5.165 8.165 11.356 39.074 22.763 78.13 34.103 117.212-6.701.007-13.406-.012-20.107.007-3.162-10.774-6.248-21.566-9.369-32.35-12.96-.026-25.913-.006-38.873-.013a6113.513 6113.513 0 0 0-9.42 32.367c-6.666-.022-13.331-.004-19.998-.011a85236.648 85236.648 0 0 1 32.431-111.814c1.291-3.901 1.778-8.259 4.583-11.444m11.832 23.945c-4.752 16.187-9.408 32.405-14.133 48.601 9.419.046 18.834.017 28.249.017-4.709-16.206-9.398-32.412-14.118-48.618Zm129.356-23.1c3.492-5.066 10.245-7.524 16.187-5.959 5.443 1.253 9.606 5.942 11.043 11.222 11.345 39.046 22.73 78.078 34.074 117.128-6.712.052-13.42 0-20.13.026-3.121-10.782-6.207-21.576-9.352-32.36-12.938.007-25.873-.022-38.809.011-3.093 10.79-6.283 21.555-9.374 32.346-6.66.007-13.314-.006-19.974.007C334.72 91.373 345.63 53.926 356.5 16.467c1.154-3.389 1.598-7.118 3.789-10.041m-1.63 71.722c9.38.013 18.755.006 28.135.006-4.667-16.241-9.41-32.459-14.06-48.698-4.678 16.233-9.409 32.451-14.066 48.692ZM264.841.278h72.729v19.614c-8.929.007-17.85-.01-26.773.007 0 36.315.007 72.631-.004 108.946h-19.181c0-36.313-.005-72.629.006-108.946-8.928-.017-17.85 0-26.778-.007 0-6.543-.01-13.077 0-19.619Zm178.047.798c1.841-.637 3.808-.854 5.753-.809 7.644.027 15.29.007 22.932.011 12.874.238 25.16 8.224 30.732 19.811 3.857 7.524 4.254 16.274 3.283 24.528-.673 8.641-4.296 17.281-10.937 23.009-3.508 3.125-7.878 5.021-11.634 7.805-2.063 1.569-2.166 4.62-1.099 6.803 10.145 15.663 20.691 31.081 31.049 46.609-7.575.013-15.151-.017-22.728.013-9.915-14.895-19.73-29.866-29.607-44.782-2.904-4.246-3.694-9.868-1.954-14.713 1.356-3.717 4.604-6.435 8.222-7.838 6.905-2.636 13.715-6.774 17.539-13.292 2.91-4.897 2.759-10.939 1.451-16.299-1.536-6.957-8.314-12.431-15.479-12.192-4.955.033-9.905-.022-14.852.022-2.24-.052-4.346 1.896-4.318 4.164-.024 34.975.011 69.952-.01 104.926-6.444-.013-12.878 0-19.322-.007-.012-37.652.013-75.306-.012-112.957.042-6.594 4.731-12.804 10.985-14.807ZM523.1.278h20.332c-.006 42.859.013 85.711-.013 128.568-6.769-.019-13.543 0-20.319-.006V.282ZM57.334.015c3.255-.01 6.512 0 9.768-.008.013 7.656 0 15.313.005 22.967.034 6.392-.147 12.781-.412 19.164-.436 9.219-1.013 18.456-2.54 27.571-1.049 6.282-3.222 12.342-5.918 18.096-4.399 9.271-11.31 17.115-19.079 23.713-6.95 6.116-15.246 10.569-23.971 13.583-4.936 1.698-10.015 3.01-15.187 3.739.005-6.42.005-12.845 0-19.265 6.226-.935 12.211-3.145 17.771-6.065 6.596-3.487 12.535-8.18 17.532-13.708 5.162-5.71 9.276-12.321 12.398-19.34 3.677-8.07 5.644-16.786 6.982-25.515 1.676-11.094 2.375-22.319 2.634-33.533.037-3.792.005-7.594.017-11.391Zm13.698.013C77.025-.011 83.021.022 89.016.011c.002 42.942.002 85.885 0 128.833-5.98.013-11.963-.028-17.943.022-.076-13.693-.01-27.389-.031-41.081-.008-29.251.011-58.501-.01-87.752ZM93.016.011c3.239-.002 6.475-.008 9.712.002-.105 13.093.34 26.211 1.902 39.22 1.277 10.104 3.078 20.282 7.102 29.696 3.815 9.107 9.315 17.573 16.481 24.396 6.843 6.526 15.136 11.542 24.146 14.43 2.514.805 5.085 1.435 7.698 1.816-.003 6.417-.006 12.836 0 19.252-5.135-.696-10.17-2.019-15.07-3.685-5.836-2.03-11.48-4.659-16.664-8.031-3.785-2.435-7.227-5.348-10.533-8.386-5.449-5.025-10.327-10.738-13.99-17.205-2.866-5.035-4.956-10.478-6.594-16.029-1.5-5.578-2.141-11.342-2.723-17.076-1.126-12.392-1.547-24.847-1.467-37.286.007-7.037.004-14.078.007-21.114Z" style="fill:#fff" transform="scale(.44 .44232)"/>
    <path d="M57.334.015c-.011 3.798.021 7.599-.017 11.399-.259 11.214-.957 22.438-2.634 33.533-1.338 8.729-3.306 17.445-6.982 25.515-3.122 7.023-7.236 13.631-12.398 19.34-4.997 5.532-10.936 10.221-17.532 13.708-5.56 2.924-11.545 5.131-17.771 6.065.005 6.42.005 12.845 0 19.265 5.172-.729 10.251-2.041 15.187-3.739 8.725-3.014 17.021-7.467 23.971-13.583 7.769-6.598 14.68-14.442 19.079-23.713 2.695-5.754 4.869-11.814 5.918-18.096 1.527-9.114 2.105-18.352 2.54-27.571.265-6.383.446-12.772.412-19.164-.005-7.661.008-15.318-.005-22.974-3.257.008-6.513-.003-9.768.008m13.698.02c.021 29.254.002 58.5.011 87.754.021 13.693-.045 27.389.032 41.081 5.979-.054 11.961-.013 17.942-.022.002-42.942.002-85.885 0-128.833-5.996.015-11.992-.019-17.985.021M93.016.011c-.002 7.036 0 14.077 0 21.113-.08 12.44.341 24.894 1.467 37.286.582 5.734 1.223 11.497 2.723 17.076 1.638 5.55 3.728 10.993 6.594 16.029 3.662 6.466 8.541 12.18 13.99 17.205 3.306 3.038 6.748 5.951 10.533 8.384 5.184 3.374 10.828 6.003 16.664 8.033 4.9 1.666 9.935 2.989 15.07 3.685-.006-6.417-.003-12.835 0-19.253-2.614-.379-5.184-1.01-7.698-1.815-9.01-2.888-17.304-7.904-24.146-14.43-7.166-6.823-12.666-15.288-16.481-24.396-4.024-9.414-5.825-19.592-7.102-29.699-1.562-13.006-2.007-26.124-1.902-39.217-3.255-.002-6.492.004-9.731.007m473.686 116.089 7.549 2.288-.147-2.581c0-7.109 6.088-11.785 12.855-11.785 7.745 0 13.051 6.038 13.051 13.587 0 4.531-2.385 9.061-6.428 11.202l-3.214-3.411c3.116-1.119 5.454-4.869 5.454-8.131 0-4.966-4.09-8.863-9.01-8.863-4.724 0-8.717 4.038-8.717 8.762 0 2.581 1.217 5.261 3.264 6.866v.879l-18.848-5.65v-14.693h4.188v11.543h.01Zm28.343-36.274h4.185v23.716l-19.724-16.073c-1.848-1.509-4.138-3.261-6.574-3.261-3.847 0-7.011 3.409-7.011 7.206 0 3.752 3.02 6.819 6.72 7.063v4.577c-6.525-.73-10.91-4.967-10.91-11.64 0-6.233 4.626-11.588 11.007-11.588 2.726 0 5.452 1.024 7.549 2.724l14.754 12.078V79.834h.011Zm-33.317-20.061c0 10.516 8.623 19.069 19.221 19.069 10.516 0 19.07-8.553 19.07-19.069 0-10.822-8.409-19.298-19.146-19.298s-19.145 8.476-19.145 19.298Zm19.23-14.79c8.295 0 14.792 6.597 14.792 15.023 0 7.9-6.635 14.327-14.792 14.327-8.241 0-14.947-6.427-14.947-14.327-.011-8.563 6.424-15.023 14.944-15.023Zm-19.23-25.678c0 10.516 8.623 19.069 19.221 19.069 10.516 0 19.07-8.553 19.07-19.069C600 8.484 591.596.007 580.865.007c-10.732 0-19.156 8.477-19.156 19.298Zm19.23-14.789c8.295 0 14.792 6.597 14.792 15.023 0 7.9-6.635 14.329-14.792 14.329-8.241 0-14.947-6.429-14.947-14.329-.011-8.566 6.424-15.023 14.944-15.023Z" style="fill:#fff" transform="scale(.44 .44232)"/>
</svg>

<?xml version="1.0" encoding="utf-8"?>
<svg version="1.1" viewBox="0 0 264 57" xmlns="http://www.w3.org/2000/svg">
  <g transform="matrix(0.44, 0, 0, 0.44232, 0, 0)">
    <path id="path5" d="M 219.089 5.592 C 224.089 -0.804 234.436 -1.897 240.57 3.469 C 243.079 5.581 244.837 8.496 245.735 11.634 C 257.091 50.708 268.498 89.764 279.838 128.846 C 273.137 128.853 266.432 128.834 259.731 128.853 C 256.569 118.079 253.483 107.287 250.362 96.503 C 237.402 96.477 224.449 96.497 211.489 96.49 C 208.316 107.269 205.183 118.059 202.069 128.857 C 195.403 128.835 188.738 128.853 182.071 128.846 C 192.86 91.57 203.661 54.297 214.502 17.032 C 215.793 13.131 216.28 8.773 219.085 5.588 M 230.917 29.533 C 226.165 45.72 221.509 61.938 216.784 78.134 C 226.203 78.18 235.618 78.151 245.033 78.151 C 240.324 61.945 235.635 45.739 230.915 29.533 Z" style="fill: rgb(255, 255, 255);"/>
    <path id="path7" d="M 360.273 6.433 C 363.765 1.367 370.518 -1.091 376.46 0.474 C 381.903 1.727 386.066 6.416 387.503 11.696 C 398.848 50.742 410.233 89.774 421.577 128.824 C 414.865 128.876 408.157 128.824 401.447 128.85 C 398.326 118.068 395.24 107.274 392.095 96.49 C 379.157 96.497 366.222 96.468 353.286 96.501 C 350.193 107.291 347.003 118.056 343.912 128.847 C 337.252 128.854 330.598 128.841 323.938 128.854 C 334.72 91.373 345.63 53.926 356.5 16.467 C 357.654 13.078 358.098 9.349 360.289 6.426 M 358.659 78.148 C 368.039 78.161 377.414 78.154 386.794 78.154 C 382.127 61.913 377.384 45.695 372.734 29.456 C 368.056 45.689 363.325 61.907 358.668 78.148 Z" style="fill: rgb(255, 255, 255);"/>
    <path id="path9" d="M 264.841 0.278 L 337.57 0.278 L 337.57 19.892 C 328.641 19.899 319.72 19.882 310.797 19.899 C 310.797 56.214 310.804 92.53 310.793 128.845 L 291.612 128.845 C 291.612 92.532 291.607 56.216 291.618 19.899 C 282.69 19.882 273.768 19.899 264.84 19.892 C 264.84 13.349 264.83 6.815 264.84 0.273 Z" style="fill: rgb(255, 255, 255);"/>
    <path id="path11" d="M 442.888 1.076 C 444.729 0.439 446.696 0.222 448.641 0.267 C 456.285 0.294 463.931 0.274 471.573 0.278 C 484.447 0.516 496.733 8.502 502.305 20.089 C 506.162 27.613 506.559 36.363 505.588 44.617 C 504.915 53.258 501.292 61.898 494.651 67.626 C 491.143 70.751 486.773 72.647 483.017 75.431 C 480.954 77 480.851 80.051 481.918 82.234 C 492.063 97.897 502.609 113.315 512.967 128.843 C 505.392 128.856 497.816 128.826 490.239 128.856 C 480.324 113.961 470.509 98.99 460.632 84.074 C 457.728 79.828 456.938 74.206 458.678 69.361 C 460.034 65.644 463.282 62.926 466.9 61.523 C 473.805 58.887 480.615 54.749 484.439 48.231 C 487.349 43.334 487.198 37.292 485.89 31.932 C 484.354 24.975 477.576 19.501 470.411 19.74 C 465.456 19.773 460.506 19.718 455.559 19.762 C 453.319 19.71 451.213 21.658 451.241 23.926 C 451.217 58.901 451.252 93.878 451.231 128.852 C 444.787 128.839 438.353 128.852 431.909 128.845 C 431.897 91.193 431.922 53.539 431.897 15.888 C 431.939 9.294 436.628 3.084 442.882 1.081 Z" style="fill: rgb(255, 255, 255);"/>
    <path id="path13" d="M 523.1 0.278 L 543.432 0.278 C 543.426 43.137 543.445 85.989 543.419 128.846 C 536.65 128.827 529.876 128.846 523.1 128.84 L 523.1 0.282 Z" style="fill: rgb(255, 255, 255);"/>
    <path id="path15" d="M 57.334 0.015 C 60.589 0.005 63.846 0.015 67.102 0.007 C 67.115 7.663 67.102 15.32 67.107 22.974 C 67.141 29.366 66.96 35.755 66.695 42.138 C 66.259 51.357 65.682 60.594 64.155 69.709 C 63.106 75.991 60.933 82.051 58.237 87.805 C 53.838 97.076 46.927 104.92 39.158 111.518 C 32.208 117.634 23.912 122.087 15.187 125.101 C 10.251 126.799 5.172 128.111 0 128.84 C 0.005 122.42 0.005 115.995 0 109.575 C 6.226 108.64 12.211 106.43 17.771 103.51 C 24.367 100.023 30.306 95.33 35.303 89.802 C 40.465 84.092 44.579 77.481 47.701 70.462 C 51.378 62.392 53.345 53.676 54.683 44.947 C 56.359 33.853 57.058 22.628 57.317 11.414 C 57.354 7.622 57.322 3.82 57.334 0.023 Z" style="fill: rgb(255, 255, 255);"/>
    <path id="path17" d="M 71.032 0.028 C 77.025 -0.011 83.021 0.022 89.016 0.011 C 89.018 42.953 89.018 85.896 89.016 128.844 C 83.036 128.857 77.053 128.816 71.073 128.866 C 70.997 115.173 71.063 101.477 71.042 87.785 C 71.034 58.534 71.053 29.284 71.032 0.033 Z" style="fill: rgb(255, 255, 255);"/>
    <path id="path19" d="M 93.016 0.011 C 96.255 0.009 99.491 0.003 102.728 0.013 C 102.623 13.106 103.068 26.224 104.63 39.233 C 105.907 49.337 107.708 59.515 111.732 68.929 C 115.547 78.036 121.047 86.502 128.213 93.325 C 135.056 99.851 143.349 104.867 152.359 107.755 C 154.873 108.56 157.444 109.19 160.057 109.571 C 160.054 115.988 160.051 122.407 160.057 128.823 C 154.922 128.127 149.887 126.804 144.987 125.138 C 139.151 123.108 133.507 120.479 128.323 117.107 C 124.538 114.672 121.096 111.759 117.79 108.721 C 112.341 103.696 107.463 97.983 103.8 91.516 C 100.934 86.481 98.844 81.038 97.206 75.487 C 95.706 69.909 95.065 64.145 94.483 58.411 C 93.357 46.019 92.936 33.564 93.016 21.125 C 93.023 14.088 93.02 7.047 93.023 0.011 Z" style="fill: rgb(255, 255, 255);"/>
    <path id="path21" d="M 57.334 0.015 C 57.323 3.813 57.355 7.614 57.317 11.414 C 57.058 22.628 56.36 33.852 54.683 44.947 C 53.345 53.676 51.377 62.392 47.701 70.462 C 44.579 77.485 40.465 84.093 35.303 89.802 C 30.306 95.334 24.367 100.023 17.771 103.51 C 12.211 106.434 6.226 108.641 0 109.575 C 0.005 115.995 0.005 122.42 0 128.84 C 5.172 128.111 10.251 126.799 15.187 125.101 C 23.912 122.087 32.208 117.634 39.158 111.518 C 46.927 104.92 53.838 97.076 58.237 87.805 C 60.932 82.051 63.106 75.991 64.155 69.709 C 65.682 60.595 66.26 51.357 66.695 42.138 C 66.96 35.755 67.141 29.366 67.107 22.974 C 67.102 15.313 67.115 7.656 67.102 0 C 63.845 0.008 60.589 -0.003 57.334 0.008" style="fill: rgb(255, 255, 255);"/>
    <path id="path23" d="M 71.032 0.028 C 71.053 29.282 71.034 58.528 71.043 87.782 C 71.064 101.475 70.998 115.171 71.075 128.863 C 77.054 128.809 83.036 128.85 89.017 128.841 C 89.019 85.899 89.019 42.956 89.017 0.008 C 83.021 0.023 77.025 -0.011 71.032 0.029" style="fill: rgb(255, 255, 255);"/>
    <path id="path25" d="M 93.016 0.011 C 93.014 7.047 93.016 14.088 93.016 21.124 C 92.936 33.564 93.357 46.018 94.483 58.41 C 95.065 64.144 95.706 69.907 97.206 75.486 C 98.844 81.036 100.934 86.479 103.8 91.515 C 107.462 97.981 112.341 103.695 117.79 108.72 C 121.096 111.758 124.538 114.671 128.323 117.104 C 133.507 120.478 139.151 123.107 144.987 125.137 C 149.887 126.803 154.922 128.126 160.057 128.822 C 160.051 122.405 160.054 115.987 160.057 109.569 C 157.443 109.19 154.873 108.559 152.359 107.754 C 143.349 104.866 135.055 99.85 128.213 93.324 C 121.047 86.501 115.547 78.036 111.732 68.928 C 107.708 59.514 105.907 49.336 104.63 39.229 C 103.068 26.223 102.623 13.105 102.728 0.012 C 99.473 0.01 96.236 0.016 92.997 0.019" style="fill: rgb(255, 255, 255);"/>
    <path id="path27" d="M 566.683 116.108 L 574.232 118.396 L 574.085 115.815 C 574.085 108.706 580.173 104.03 586.94 104.03 C 594.685 104.03 599.991 110.068 599.991 117.617 C 599.991 122.148 597.606 126.678 593.563 128.819 L 590.349 125.408 C 593.465 124.289 595.803 120.539 595.803 117.277 C 595.803 112.311 591.713 108.414 586.793 108.414 C 582.069 108.414 578.076 112.452 578.076 117.176 C 578.076 119.757 579.293 122.437 581.34 124.042 L 581.34 124.921 L 562.492 119.271 L 562.492 104.578 L 566.68 104.578 L 566.68 116.121 L 566.69 116.121 Z" style="fill: rgb(255, 255, 255);"/>
    <path id="path29" d="M 595.026 79.834 L 599.211 79.834 L 599.211 103.55 L 579.487 87.477 C 577.639 85.968 575.349 84.216 572.913 84.216 C 569.066 84.216 565.902 87.625 565.902 91.422 C 565.902 95.174 568.922 98.241 572.622 98.485 L 572.622 103.062 C 566.097 102.332 561.712 98.095 561.712 91.422 C 561.712 85.189 566.338 79.834 572.719 79.834 C 575.445 79.834 578.171 80.858 580.268 82.558 L 595.022 94.636 L 595.022 79.834 L 595.033 79.834 Z" style="fill: rgb(255, 255, 255);"/>
    <path id="path31" d="M 561.709 59.773 C 561.709 70.289 570.332 78.842 580.93 78.842 C 591.446 78.842 600 70.289 600 59.773 C 600 48.951 591.591 40.475 580.854 40.475 C 570.117 40.475 561.709 48.951 561.709 59.773 Z M 580.939 44.983 C 589.234 44.983 595.731 51.58 595.731 60.006 C 595.731 67.906 589.096 74.333 580.939 74.333 C 572.698 74.333 565.992 67.906 565.992 60.006 C 565.981 51.443 572.416 44.983 580.936 44.983 Z" style="fill: rgb(255, 255, 255);"/>
    <path id="path33" d="M 561.709 19.305 C 561.709 29.821 570.332 38.374 580.93 38.374 C 591.446 38.374 600 29.821 600 19.305 C 600 8.484 591.596 0.007 580.865 0.007 C 570.133 0.007 561.709 8.484 561.709 19.305 Z M 580.939 4.516 C 589.234 4.516 595.731 11.113 595.731 19.539 C 595.731 27.439 589.096 33.868 580.939 33.868 C 572.698 33.868 565.992 27.439 565.992 19.539 C 565.981 10.973 572.416 4.516 580.936 4.516 Z" style="fill: rgb(255, 255, 255);"/>
  </g>
</svg>
